;FLAVOR:Marlin
;TIME:35968
;Filament used: 30.1168m
;Layer height: 0.16
;MINX:34.257
;MINY:43.28
;MINZ:0.2
;MAXX:185.743
;MAXY:176.72
;MAXZ:23.52
;TARGET_MACHINE.NAME:Creality Ender-5
;Generated with Cura_SteamEngine 5.11.0
M140 S85
M105
M190 S85
M104 S250
M105
M109 S250
M201 X500.00 Y500.00 Z100.00 E5000.00 ;Setup machine max acceleration
M203 X500.00 Y500.00 Z10.00 E50.00 ;Setup machine max feedrate
M204 P500.00 R1000.00 T500.00 ;Setup Print/Retract/Travel acceleration
M205 X8.00 Y8.00 Z0.40 E5.00 ;Setup Jerk
M220 S100 ;Reset Feedrate
M221 S100 ;Reset Flowrate

G28 ;Home
G29
G92 E0 ;Reset Extruder
G1 Z2.0 F3000 ;Move Z Axis up
G1 X10.1 Y20 Z0.28 F5000.0 ;Move to start position
G1 X10.1 Y200.0 Z0.28 F1500.0 E15 ;Draw the first line
G1 X10.4 Y200.0 Z0.28 F5000.0 ;Move to side a little
G1 X10.4 Y20 Z0.28 F1500.0 E30 ;Draw the second line
G92 E0 ;Reset Extruder
G1 Z2.0 F3000 ;Move Z Axis up
M82 ;absolute extrusion mode
G92 E0
G92 E0
G1 F2700 E-7
;LAYER_COUNT:119
;LAYER:0
M107
G0 F6000 X39.956 Y47.605 Z0.2
;TYPE:SKIRT
G1 F2700 E0
G1 F900 X40.578 Y47.08 E0.02707
G1 X40.911 Y46.818 E0.04116
G1 X41.578 Y46.33 E0.06865
G1 X41.875 Y46.128 E0.0806
G1 X42.536 Y45.711 E0.10659
G1 X42.982 Y45.449 E0.1238
G1 X43.824 Y45.004 E0.15547
G1 X44.914 Y44.532 E0.19498
G1 X45.647 Y44.256 E0.22103
G1 X46.085 Y44.11 E0.23639
G1 X46.891 Y43.87 E0.26436
G1 X47.29 Y43.767 E0.27806
G1 X48.019 Y43.604 E0.30291
G1 X48.719 Y43.484 E0.32653
G1 X49.403 Y43.391 E0.34949
G1 X50.076 Y43.337 E0.37195
G1 X51.083 Y43.294 E0.40547
G1 X51.939 Y43.281 E0.43394
G1 X167.916 Y43.28 E4.29135
G1 X169.178 Y43.299 E4.33333
G1 X169.88 Y43.334 E4.35671
G1 X170.368 Y43.38 E4.37301
G1 X171.139 Y43.473 E4.39884
G1 X171.605 Y43.544 E4.41452
G1 X172.412 Y43.699 E4.44185
G1 X173.355 Y43.941 E4.47423
G1 X173.837 Y44.084 E4.49096
G1 X174.888 Y44.451 E4.52798
G1 X175.579 Y44.736 E4.55284
G1 X175.925 Y44.894 E4.56549
G1 X176.663 Y45.259 E4.59288
G1 X177 Y45.44 E4.6056
G1 X177.818 Y45.927 E4.63726
G1 X178.618 Y46.467 E4.66937
G1 X179.021 Y46.763 E4.686
G1 X179.744 Y47.34 E4.71676
G1 X180.395 Y47.928 E4.74594
G1 X180.795 Y48.312 E4.76438
G1 X181.418 Y48.966 E4.79442
G1 X182.179 Y49.897 E4.83442
G1 X182.664 Y50.56 E4.86174
G1 X182.914 Y50.926 E4.87648
G1 X183.446 Y51.783 E4.91003
G1 X183.839 Y52.504 E4.93734
G1 X184.014 Y52.852 E4.9503
G1 X184.361 Y53.618 E4.97827
G1 X184.503 Y53.967 E4.9908
G1 X184.778 Y54.7 E5.01684
G1 X184.906 Y55.082 E5.03024
G1 X185.137 Y55.851 E5.05694
G1 X185.237 Y56.232 E5.07005
G1 X185.416 Y57.041 E5.0976
G1 X185.565 Y57.978 E5.12916
G1 X185.618 Y58.428 E5.14423
G1 X185.695 Y59.264 E5.17215
G1 X185.73 Y60.106 E5.20018
G1 X185.743 Y60.876 E5.2258
G1 X185.743 Y159.072 E8.49181
G1 X185.724 Y160.143 E8.52744
G1 X185.685 Y160.912 E8.55305
G1 X185.633 Y161.515 E8.57318
G1 X185.494 Y162.565 E8.60841
G1 X185.281 Y163.583 E8.643
G1 X184.985 Y164.676 E8.68066
G1 X184.705 Y165.515 E8.71008
G1 X184.573 Y165.867 E8.72258
G1 X184.281 Y166.575 E8.74805
G1 X184.128 Y166.907 E8.76021
G1 X183.762 Y167.643 E8.78755
G1 X183.569 Y167.999 E8.80102
G1 X183.075 Y168.828 E8.83312
G1 X182.568 Y169.578 E8.86323
G1 X182.271 Y169.983 E8.87993
G1 X181.671 Y170.734 E8.9119
G1 X181.082 Y171.387 E8.94115
G1 X180.267 Y172.194 E8.9793
G1 X179.899 Y172.529 E8.99585
G1 X179.317 Y173.02 E9.02118
G1 X178.502 Y173.619 E9.05482
G1 X178.127 Y173.873 E9.06988
G1 X177.491 Y174.274 E9.09489
G1 X177.034 Y174.541 E9.11249
G1 X176.106 Y175.028 E9.14735
G1 X175.543 Y175.28 E9.16787
G1 X174.864 Y175.56 E9.19229
G1 X173.849 Y175.924 E9.22816
G1 X172.888 Y176.194 E9.26136
G1 X172.233 Y176.348 E9.28374
G1 X171.54 Y176.476 E9.30718
G1 X170.546 Y176.614 E9.34056
G1 X169.924 Y176.663 E9.36131
G1 X168.916 Y176.706 E9.39486
G1 X168.069 Y176.716 E9.42304
G1 X52.084 Y176.72 E13.28071
G1 X50.822 Y176.701 E13.32269
G1 X50.12 Y176.666 E13.34607
G1 X49.632 Y176.62 E13.36237
G1 X48.857 Y176.526 E13.38834
G1 X48.38 Y176.454 E13.40438
G1 X47.611 Y176.306 E13.43043
G1 X47.225 Y176.219 E13.44359
G1 X46.425 Y176.009 E13.4711
G1 X45.599 Y175.733 E13.50007
G1 X45.138 Y175.56 E13.51644
G1 X44.431 Y175.269 E13.54187
G1 X44.101 Y175.118 E13.55394
G1 X43.348 Y174.746 E13.58188
G1 X42.962 Y174.536 E13.59649
G1 X42.117 Y174.032 E13.62922
G1 X41.397 Y173.54 E13.65822
G1 X40.995 Y173.244 E13.67483
G1 X40.196 Y172.606 E13.70883
G1 X39.611 Y172.081 E13.73498
G1 X39.363 Y171.843 E13.74641
G1 X38.549 Y170.984 E13.78577
G1 X38.056 Y170.397 E13.81127
G1 X37.796 Y170.067 E13.82524
G1 X37.304 Y169.396 E13.85291
G1 X37.044 Y169.012 E13.86834
G1 X36.55 Y168.219 E13.89941
G1 X36.171 Y167.513 E13.92606
G1 X35.961 Y167.089 E13.9418
G1 X35.633 Y166.368 E13.96815
G1 X35.492 Y166.025 E13.98048
G1 X35.208 Y165.275 E14.00715
G1 X35.056 Y164.827 E14.02289
G1 X34.878 Y164.245 E14.04313
G1 X34.639 Y163.23 E14.07781
G1 X34.529 Y162.689 E14.09617
G1 X34.438 Y162.144 E14.11455
G1 X34.315 Y160.915 E14.15563
G1 X34.27 Y159.871 E14.19039
G1 X34.257 Y159.064 E14.21723
G1 X34.257 Y60.885 E17.48268
G1 X34.275 Y59.698 E17.52216
G1 X34.307 Y59.046 E17.54388
G1 X34.378 Y58.313 E17.56837
G1 X34.508 Y57.453 E17.5973
G1 X34.718 Y56.415 E17.63252
G1 X34.911 Y55.688 E17.65754
G1 X35.058 Y55.197 E17.67459
G1 X35.345 Y54.346 E17.70446
G1 X35.696 Y53.483 E17.73544
G1 X35.919 Y52.999 E17.75317
G1 X36.365 Y52.117 E17.78604
G1 X36.799 Y51.375 E17.81463
G1 X36.993 Y51.072 E17.8266
G1 X37.447 Y50.4 E17.85357
G1 X37.684 Y50.076 E17.86692
G1 X38.177 Y49.449 E17.89345
G1 X38.427 Y49.156 E17.90626
G1 X38.949 Y48.58 E17.93212
G1 X39.202 Y48.322 E17.94414
G1 X39.956 Y47.605 E17.97874
G0 F6000 X40.214 Y47.911
G1 F900 X40.826 Y47.394 E18.00539
G1 X41.147 Y47.141 E18.01898
G1 X41.804 Y46.66 E18.04606
G1 X42.088 Y46.466 E18.0575
G1 X42.738 Y46.056 E18.08306
G1 X43.169 Y45.803 E18.09969
G1 X44.011 Y45.358 E18.13136
G1 X45.055 Y44.906 E18.1692
G1 X45.788 Y44.63 E18.19525
G1 X46.199 Y44.493 E18.20966
G1 X46.991 Y44.257 E18.23715
G1 X47.378 Y44.157 E18.25044
G1 X48.087 Y43.998 E18.27461
G1 X48.773 Y43.88 E18.29776
G1 X49.435 Y43.79 E18.31998
G1 X50.093 Y43.737 E18.34194
G1 X51.089 Y43.694 E18.3751
G1 X51.939 Y43.681 E18.40337
G1 X167.91 Y43.68 E22.26058
G1 X169.158 Y43.699 E22.30209
G1 X169.86 Y43.734 E22.32547
G1 X170.32 Y43.777 E22.34084
G1 X171.079 Y43.869 E22.36627
G1 X171.53 Y43.937 E22.38144
G1 X172.337 Y44.092 E22.40877
G1 X173.241 Y44.324 E22.43981
G1 X173.705 Y44.462 E22.45591
G1 X174.736 Y44.821 E22.49222
G1 X175.413 Y45.1 E22.51658
G1 X175.747 Y45.252 E22.52878
G1 X176.474 Y45.612 E22.55576
G1 X176.795 Y45.784 E22.56788
G1 X177.613 Y46.271 E22.59954
G1 X178.381 Y46.79 E22.63037
G1 X178.771 Y47.076 E22.64645
G1 X179.494 Y47.653 E22.67722
G1 X180.118 Y48.216 E22.70517
G1 X180.505 Y48.588 E22.72303
G1 X181.128 Y49.242 E22.75307
G1 X181.856 Y50.134 E22.79137
G1 X182.334 Y50.786 E22.81825
G1 X182.574 Y51.137 E22.8324
G1 X183.106 Y51.994 E22.86595
G1 X183.482 Y52.684 E22.89208
G1 X183.65 Y53.017 E22.90449
G1 X183.991 Y53.769 E22.93195
G1 X184.129 Y54.108 E22.94412
G1 X184.399 Y54.827 E22.96967
G1 X184.523 Y55.197 E22.98265
G1 X184.75 Y55.952 E23.00887
G1 X184.846 Y56.318 E23.02145
G1 X185.025 Y57.127 E23.04901
G1 X185.168 Y58.025 E23.07926
G1 X185.22 Y58.465 E23.09399
G1 X185.295 Y59.281 E23.12125
G1 X185.33 Y60.113 E23.14894
G1 X185.343 Y60.883 E23.17456
G1 X185.343 Y159.065 E26.4401
G1 X185.325 Y160.123 E26.4753
G1 X185.287 Y160.877 E26.50041
G1 X185.236 Y161.463 E26.51997
G1 X185.102 Y162.483 E26.55419
G1 X184.889 Y163.501 E26.58878
G1 X184.605 Y164.55 E26.62493
G1 X184.331 Y165.374 E26.65381
G1 X184.203 Y165.714 E26.66589
G1 X183.911 Y166.422 E26.69137
G1 X183.77 Y166.729 E26.7026
G1 X183.411 Y167.452 E26.72945
G1 X183.225 Y167.794 E26.7424
G1 X182.731 Y168.623 E26.7745
G1 X182.246 Y169.341 E26.80331
G1 X181.958 Y169.733 E26.81949
G1 X181.358 Y170.484 E26.85146
G1 X180.785 Y171.119 E26.87991
G1 X179.998 Y171.898 E26.91674
G1 X179.641 Y172.223 E26.9328
G1 X179.059 Y172.714 E26.95812
G1 X178.277 Y173.288 E26.99039
G1 X177.913 Y173.535 E27.00502
G1 X177.289 Y173.929 E27.02956
G1 X176.848 Y174.187 E27.04656
G1 X175.942 Y174.663 E27.0806
G1 X175.391 Y174.91 E27.10068
G1 X174.729 Y175.183 E27.1245
G1 X173.714 Y175.547 E27.16036
G1 X172.796 Y175.805 E27.19208
G1 X172.16 Y175.955 E27.21381
G1 X171.485 Y176.08 E27.23664
G1 X170.515 Y176.215 E27.26922
G1 X169.907 Y176.263 E27.2895
G1 X168.911 Y176.306 E27.32266
G1 X168.067 Y176.317 E27.35073
G1 X52.09 Y176.32 E31.20815
G1 X50.842 Y176.301 E31.24966
G1 X50.14 Y176.266 E31.27304
G1 X49.68 Y176.223 E31.2884
G1 X48.917 Y176.131 E31.31396
G1 X48.455 Y176.061 E31.32951
G1 X47.699 Y175.916 E31.35511
G1 X47.326 Y175.832 E31.36783
G1 X46.551 Y175.629 E31.39447
G1 X45.74 Y175.359 E31.4229
G1 X45.29 Y175.19 E31.43889
G1 X44.597 Y174.905 E31.46381
G1 X44.278 Y174.759 E31.47548
G1 X43.539 Y174.394 E31.50289
G1 X43.167 Y174.192 E31.51697
G1 X42.322 Y173.688 E31.5497
G1 X41.634 Y173.218 E31.57741
G1 X41.244 Y172.931 E31.59352
G1 X40.463 Y172.308 E31.62674
G1 X39.888 Y171.792 E31.65244
G1 X39.64 Y171.554 E31.66387
G1 X38.855 Y170.727 E31.7018
G1 X38.37 Y170.15 E31.72687
G1 X38.118 Y169.83 E31.74041
G1 X37.635 Y169.172 E31.76756
G1 X37.384 Y168.801 E31.78246
G1 X36.89 Y168.008 E31.81353
G1 X36.529 Y167.336 E31.83891
G1 X36.325 Y166.924 E31.8542
G1 X36.003 Y166.215 E31.8801
G1 X35.866 Y165.883 E31.89204
G1 X35.587 Y165.146 E31.91825
G1 X35.439 Y164.71 E31.93357
G1 X35.261 Y164.128 E31.95381
G1 X35.031 Y163.15 E31.98723
G1 X34.924 Y162.623 E32.00511
G1 X34.833 Y162.078 E32.02349
G1 X34.715 Y160.898 E32.06293
G1 X34.67 Y159.865 E32.09732
G1 X34.657 Y159.058 E32.12417
G1 X34.657 Y60.891 E35.38921
G1 X34.675 Y59.718 E35.42823
G1 X34.707 Y59.066 E35.44994
G1 X34.774 Y58.372 E35.47313
G1 X34.9 Y57.532 E35.50139
G1 X35.105 Y56.518 E35.53579
G1 X35.298 Y55.791 E35.56081
G1 X35.437 Y55.325 E35.57699
G1 X35.716 Y54.497 E35.60605
G1 X36.067 Y53.634 E35.63703
G1 X36.276 Y53.18 E35.65366
G1 X36.722 Y52.298 E35.68653
G1 X37.136 Y51.59 E35.71381
G1 X37.324 Y51.296 E35.72541
G1 X37.77 Y50.636 E35.75191
G1 X37.999 Y50.323 E35.76481
G1 X38.482 Y49.708 E35.79082
G1 X38.723 Y49.425 E35.80318
G1 X39.235 Y48.86 E35.82854
G1 X39.478 Y48.612 E35.84009
G1 X40.214 Y47.911 E35.87389
G0 F6000 X40.49 Y48.201
G1 F900 X41.073 Y47.708 E35.89929
G1 X41.383 Y47.464 E35.91241
G1 X42.03 Y46.99 E35.93909
G1 X42.302 Y46.804 E35.95005
G1 X42.94 Y46.401 E35.97514
G1 X43.356 Y46.157 E35.99119
G1 X44.198 Y45.712 E36.02286
G1 X45.196 Y45.28 E36.05903
G1 X45.915 Y45.009 E36.08459
G1 X46.313 Y44.876 E36.09854
G1 X47.091 Y44.644 E36.12555
G1 X47.466 Y44.547 E36.13843
G1 X48.155 Y44.392 E36.16192
G1 X48.827 Y44.276 E36.1846
G1 X49.467 Y44.189 E36.20608
G1 X50.11 Y44.137 E36.22754
G1 X51.095 Y44.094 E36.26033
G1 X51.939 Y44.081 E36.28841
G1 X167.904 Y44.08 E40.14542
G1 X169.138 Y44.099 E40.18646
G1 X169.84 Y44.134 E40.20984
G1 X170.272 Y44.174 E40.22427
G1 X171.019 Y44.264 E40.2493
G1 X171.455 Y44.33 E40.26396
G1 X172.262 Y44.485 E40.2913
G1 X173.127 Y44.707 E40.321
G1 X173.574 Y44.84 E40.33651
G1 X174.584 Y45.191 E40.37207
G1 X175.247 Y45.464 E40.39592
G1 X175.57 Y45.611 E40.40772
G1 X176.285 Y45.964 E40.43425
G1 X176.59 Y46.128 E40.44576
G1 X177.408 Y46.615 E40.47743
G1 X178.144 Y47.112 E40.50696
G1 X178.521 Y47.389 E40.52252
G1 X179.244 Y47.966 E40.55329
G1 X179.841 Y48.505 E40.58004
G1 X180.215 Y48.864 E40.59728
G1 X180.838 Y49.518 E40.62733
G1 X181.534 Y50.371 E40.66394
G1 X182.004 Y51.011 E40.69035
G1 X182.234 Y51.348 E40.70392
G1 X182.766 Y52.205 E40.73747
G1 X183.125 Y52.864 E40.76243
G1 X183.286 Y53.183 E40.77432
G1 X183.621 Y53.92 E40.80124
G1 X183.755 Y54.249 E40.81306
G1 X184.02 Y54.954 E40.83811
G1 X184.14 Y55.312 E40.85067
G1 X184.363 Y56.053 E40.87641
G1 X184.455 Y56.404 E40.88847
G1 X184.634 Y57.213 E40.91603
G1 X184.771 Y58.072 E40.94496
G1 X184.822 Y58.502 E40.95937
G1 X184.895 Y59.298 E40.98595
G1 X184.93 Y60.12 E41.01332
G1 X184.943 Y60.89 E41.03893
G1 X184.943 Y159.058 E44.30401
G1 X184.926 Y160.103 E44.33877
G1 X184.889 Y160.842 E44.36338
G1 X184.839 Y161.411 E44.38238
G1 X184.71 Y162.401 E44.41559
G1 X184.497 Y163.419 E44.45018
G1 X184.219 Y164.445 E44.48553
G1 X183.956 Y165.234 E44.5132
G1 X183.833 Y165.562 E44.52485
G1 X183.547 Y166.256 E44.54981
G1 X183.412 Y166.551 E44.5606
G1 X183.059 Y167.261 E44.58698
G1 X182.881 Y167.589 E44.59939
G1 X182.387 Y168.418 E44.63148
G1 X181.923 Y169.104 E44.65903
G1 X181.645 Y169.483 E44.67466
G1 X181.045 Y170.234 E44.70663
G1 X180.488 Y170.851 E44.73428
G1 X179.729 Y171.602 E44.7698
G1 X179.383 Y171.917 E44.78536
G1 X178.801 Y172.408 E44.81068
G1 X178.053 Y172.957 E44.84154
G1 X177.699 Y173.197 E44.85577
G1 X177.086 Y173.584 E44.87988
G1 X176.662 Y173.833 E44.89623
G1 X175.778 Y174.298 E44.92946
G1 X175.238 Y174.54 E44.94914
G1 X174.594 Y174.806 E44.97231
G1 X173.579 Y175.17 E45.00818
G1 X172.704 Y175.416 E45.03841
G1 X172.087 Y175.562 E45.0595
G1 X171.43 Y175.684 E45.08172
G1 X170.483 Y175.816 E45.11352
G1 X169.89 Y175.863 E45.13331
G1 X168.905 Y175.906 E45.1661
G1 X168.064 Y175.918 E45.19408
G1 X52.096 Y175.92 E49.05119
G1 X50.862 Y175.901 E49.09223
G1 X50.16 Y175.866 E49.11561
G1 X49.728 Y175.826 E49.13004
G1 X48.977 Y175.736 E49.1552
G1 X48.53 Y175.668 E49.17024
G1 X47.787 Y175.526 E49.1954
G1 X47.427 Y175.445 E49.20767
G1 X46.652 Y175.242 E49.23432
G1 X45.881 Y174.985 E49.26135
G1 X45.442 Y174.82 E49.27695
G1 X44.763 Y174.541 E49.30136
G1 X44.455 Y174.401 E49.31261
G1 X43.73 Y174.042 E49.33952
G1 X43.372 Y173.848 E49.35307
G1 X42.527 Y173.344 E49.38579
G1 X41.871 Y172.896 E49.41221
G1 X41.493 Y172.618 E49.42782
G1 X40.712 Y171.995 E49.46105
G1 X40.165 Y171.503 E49.48552
G1 X39.917 Y171.265 E49.49695
G1 X39.161 Y170.469 E49.53346
G1 X38.684 Y169.903 E49.55808
G1 X38.44 Y169.593 E49.5712
G1 X37.966 Y168.948 E49.59782
G1 X37.723 Y168.589 E49.61224
G1 X37.242 Y167.818 E49.64247
G1 X36.887 Y167.159 E49.66736
G1 X36.689 Y166.759 E49.68221
G1 X36.373 Y166.062 E49.70766
G1 X36.24 Y165.741 E49.71922
G1 X35.966 Y165.017 E49.74497
G1 X35.822 Y164.593 E49.75986
G1 X35.644 Y164.011 E49.7801
G1 X35.423 Y163.071 E49.81222
G1 X35.319 Y162.557 E49.82966
G1 X35.228 Y162.012 E49.84804
G1 X35.115 Y160.88 E49.88588
G1 X35.07 Y159.859 E49.91987
G1 X35.057 Y159.052 E49.94671
G1 X35.057 Y60.897 E53.21136
G1 X35.075 Y59.738 E53.24991
G1 X35.107 Y59.086 E53.27162
G1 X35.17 Y58.431 E53.29351
G1 X35.292 Y57.611 E53.32108
G1 X35.492 Y56.62 E53.35471
G1 X35.681 Y55.905 E53.37931
G1 X35.816 Y55.453 E53.395
G1 X36.087 Y54.648 E53.42325
G1 X36.438 Y53.785 E53.45424
G1 X36.633 Y53.361 E53.46976
G1 X37.079 Y52.479 E53.50263
G1 X37.473 Y51.805 E53.5286
G1 X37.655 Y51.52 E53.53984
G1 X38.093 Y50.872 E53.56586
G1 X38.313 Y50.57 E53.57829
G1 X38.787 Y49.967 E53.6038
G1 X39.02 Y49.693 E53.61576
G1 X39.52 Y49.14 E53.64055
G1 X39.754 Y48.902 E53.65166
G1 X40.49 Y48.201 E53.68546
G0 F6000 X40.748 Y48.506
G1 F900 X41.32 Y48.022 E53.71038
G1 X41.62 Y47.786 E53.72308
G1 X42.255 Y47.32 E53.74928
G1 X42.516 Y47.142 E53.75978
G1 X43.143 Y46.746 E53.78445
G1 X43.543 Y46.511 E53.79988
G1 X44.385 Y46.066 E53.83155
G1 X45.337 Y45.654 E53.86606
G1 X46.042 Y45.388 E53.89112
G1 X46.427 Y45.259 E53.90462
G1 X47.191 Y45.031 E53.93114
G1 X47.554 Y44.937 E53.94361
G1 X48.223 Y44.786 E53.96642
G1 X48.881 Y44.672 E53.98863
G1 X49.499 Y44.588 E54.00938
G1 X50.128 Y44.537 E54.03037
G1 X51.101 Y44.494 E54.06276
G1 X51.939 Y44.481 E54.09064
G1 X167.898 Y44.48 E57.94745
G1 X169.118 Y44.499 E57.98803
G1 X169.82 Y44.534 E58.01141
G1 X170.224 Y44.571 E58.0249
G1 X170.959 Y44.659 E58.04952
G1 X171.38 Y44.723 E58.06369
G1 X172.187 Y44.878 E58.09102
G1 X173.013 Y45.09 E58.11938
G1 X173.443 Y45.218 E58.1343
G1 X174.432 Y45.561 E58.16912
G1 X175.081 Y45.828 E58.19246
G1 X175.393 Y45.97 E58.20386
G1 X176.096 Y46.317 E58.22994
G1 X176.385 Y46.472 E58.24084
G1 X177.203 Y46.959 E58.27251
G1 X177.907 Y47.435 E58.30077
G1 X178.271 Y47.702 E58.31579
G1 X178.994 Y48.279 E58.34655
G1 X179.564 Y48.793 E58.37208
G1 X179.925 Y49.14 E58.38874
G1 X180.548 Y49.794 E58.41878
G1 X181.212 Y50.608 E58.45372
G1 X181.674 Y51.237 E58.47967
G1 X181.894 Y51.559 E58.49265
G1 X182.415 Y52.397 E58.52546
